X:1
T: Kiss Me Fast, my Minnie's Coming
C:
R:Jig
Q:180
K:D
M:6/8
L:1/16
E2|:D4A2F4A2|E4=c2 G2E2=C2|D4A2F4A2|D4A2 A2F2D2|
G2B2G2 F2A2F2|E4F2 G2E2=C2|d2c2B2 A2F2d2|D4A2 A2F2D2:|
|:d4g2 fga2f2|e4f2 g2e2=c2|d4g2 fga2f2|d4a2 a2f2d2|g2b2g2 f2a2f2|
e4f2 g2e2=c2|d2c2B2 A2F2D2|1D4A2 A2F2D2:|2D4A2D4||
